X: 43
T: Polonäs, sexdregasamlingen del 2 nr 43
B: Sexdregasamlingen del 2 nr 43
S: efter Anders Larsson
O: Sexdrega, Västergötland
R: Slängpolska
Z: 2011-11-16 av Nils L
M: 3/4
L: 1/16
K: D
d4 A2G2 F2E2 | D2g2 f2e2 f2e2 | d4 A2G2 F2E2 | D2dc d8 ::
f2e2 d2e2 f2d2 | g2f2 e2f2 g2e2 | f2e2 d2a2 g2f2 | e4 A8 |
f2e2 d2c2 B4 | g2f2 e2d2 c4 | d4 A2G2 F2E2 | D2dc d8 :|

